pages/images/logo.svg

<svg width="123" height="31" viewBox="0 0 123 31" fill="none" xmlns="http://www.w3.org/2000/svg">
<path d="M6.632 0.875999H0.656V30H6.632V0.875999ZM19.2964 24.168V0.875999H12.8524V30H33.5164V24.168H19.2964Z" fill="#125AC7"/>
<path d="M51.3432 12.756L62.2872 0.875999H55.1592L44.0712 12.972V0.875999H37.9512V30H44.0712V20.676L47.2392 17.22L56.3832 30H63.5832L51.3432 12.756ZM78.3277 0.263999C70.7317 0.263999 64.4677 5.7 64.4677 15.42C64.4677 25.356 70.7317 30.54 78.3277 30.54C85.9237 30.54 92.2237 25.392 92.2237 15.42C92.2237 5.88 86.2837 0.263999 78.3277 0.263999ZM78.3277 24.528C74.0077 24.528 70.7317 21.684 70.7317 15.42C70.7317 9.192 74.0437 6.312 78.3277 6.312C82.6477 6.312 85.9237 9.192 85.9237 15.42C85.9237 21.684 82.6837 24.528 78.3277 24.528ZM115.502 18.876C118.922 17.58 121.118 13.98 121.118 10.272C121.118 5.448 117.23 0.875999 110.894 0.875999H97.4299V30H103.874V19.524C103.874 19.524 104.594 19.524 109.202 19.524L114.962 30H122.378L115.502 18.876ZM103.874 13.872V6.528H111.398C113.63 6.528 115.466 8.004 115.466 10.272C115.466 12.504 113.63 13.872 111.398 13.872H103.874Z" fill="white"/>
</svg>

<svg width="123" height="31" fill="none" xmlns="http://www.w3.org/2000/svg"><path d="M6.632.876H.656V30h5.976V.876Zm12.664 23.292V.876h-6.444V30h20.664v-5.832h-14.22Z" fill="#125AC7"/><path d="M51.343 12.756 62.287.876H55.16L44.071 12.972V.876h-6.12V30h6.12v-9.324l3.168-3.456L56.383 30h7.2l-12.24-17.244ZM78.328.264c-7.596 0-13.86 5.436-13.86 15.156 0 9.936 6.264 15.12 13.86 15.12 7.596 0 13.896-5.148 13.896-15.12 0-9.54-5.94-15.156-13.896-15.156Zm0 24.264c-4.32 0-7.596-2.844-7.596-9.108 0-6.228 3.312-9.108 7.596-9.108 4.32 0 7.596 2.88 7.596 9.108 0 6.264-3.24 9.108-7.596 9.108Zm37.174-5.652c3.42-1.296 5.616-4.896 5.616-8.604 0-4.824-3.888-9.396-10.224-9.396H97.43V30h6.444V19.524h5.328L114.962 30h7.416l-6.876-11.124Zm-11.628-5.004V6.528h7.524c2.232 0 4.068 1.476 4.068 3.744 0 2.232-1.836 3.6-4.068 3.6h-7.524Z" fill="#fff"/></svg>
